public/assets/img/close.svg

<svg width="24" height="24" viewBox="0 0 24 24" fill="none" xmlns="http://www.w3.org/2000/svg">
<path d="M18.0781 18.4531C18.4766 18.0469 18.4766 17.3828 18.0859 16.9922L13.4688 12.375L18.0859 7.75001C18.4766 7.35938 18.4844 6.68751 18.0781 6.28907C17.6797 5.89063 17.0078 5.89063 16.6172 6.28126L12 10.8984L7.375 6.28126C7 5.89844 6.3125 5.88282 5.91406 6.28907C5.51562 6.68751 5.52344 7.37501 5.90625 7.75001L10.5234 12.375L5.90625 16.9922C5.52344 17.375 5.51562 18.0547 5.91406 18.4531C6.32031 18.8516 7 18.8438 7.375 18.4688L12 13.8438L16.6172 18.4609C17.0078 18.8516 17.6797 18.8516 18.0781 18.4531Z" fill="#141029" fill-opacity="0.4"/>
</svg>

<svg width="24" height="24" fill="none" xmlns="http://www.w3.org/2000/svg"><path d="M18.078 18.453c.399-.406.399-1.07.008-1.46l-4.617-4.618 4.617-4.625c.39-.39.398-1.062-.008-1.46a1.05 1.05 0 0 0-1.46-.009L12 10.898 7.375 6.281c-.375-.383-1.063-.398-1.46.008-.4.399-.392 1.086-.009 1.461l4.617 4.625-4.617 4.617c-.383.383-.39 1.063.008 1.461.406.399 1.086.39 1.461.016L12 13.844l4.617 4.617c.39.39 1.063.39 1.461-.008Z" fill="#141029" fill-opacity=".4"/></svg>
